packages/symbols/svgs/solid/calendar-solid.svg

<svg width="16" height="16" viewBox="0 0 16 16" xmlns="http://www.w3.org/2000/svg"><g clip-path="url(#a)"><path fill-rule="evenodd" clip-rule="evenodd" d="M15 2h-2V0h-3v2H6V0H3v2H1a1 1 0 0 0-1 1v12a1 1 0 0 0 1 1h14a1 1 0 0 0 1-1V3a1 1 0 0 0-1-1Zm-1 12H2V5h12v9ZM6 7H4v2h2V7Zm1 0h2v2H7V7Zm-1 3H4v2h2v-2Zm1 0h2v2H7v-2Zm5-3h-2v2h2V7Zm-2 3h2v2h-2v-2Z"/></g><defs><clipPath id="a"><path fill="#fff" d="M0 0h16v16H0z"/></clipPath></defs></svg>

<svg width="16" height="16" viewBox="0 0 16 16" fill="none" xmlns="http://www.w3.org/2000/svg">
<g clip-path="url(#clip0_219_1921)">
<path fill-rule="evenodd" clip-rule="evenodd" d="M15 2L13 2L13 2.27299e-06L10 4.02145e-06L10 2L6 2L6 3.32207e-06L3 2.79753e-06L3 2L1 2C0.448 2 -4.28022e-07 2.448 -5.24537e-07 3L0 15C0 15.552 0.448 16 1 16L15 16C15.552 16 16 15.552 16 15L16 3C16 2.448 15.552 2 15 2ZM14 14L2 14L2 5L14 5L14 14ZM6 7L4 7L4 9L6 9L6 7ZM7 7L9 7L9 9L7 9L7 7ZM6 10L4 10L4 12L6 12L6 10ZM7 10L9 10L9 12L7 12L7 10ZM12 7L10 7L10 9L12 9L12 7ZM10 10L12 10L12 12L10 12L10 10Z" fill="black"/>
</g>
<defs>
<clipPath id="clip0_219_1921">
<rect width="16" height="16" fill="white"/>
</clipPath>
</defs>
</svg>
